X: 3218
T: FUDDLIN' BOYS
%R: jig
B: James Kerr "Merry Melodies" v.3 p.25 #218
Z: 2016 John Chambers <jc:trillian.mit.edu>
M: 6/8
L: 1/8
K: A
uE |\
vA2vE uA2uE | A2B c2c |\
d2c B2A | G2F E2E |\
AAE AAE | A2B c2e |\
fed c2B | A3- A2 :|
|: c |\
F2F F2A | E2E E2e |\
fed cde | dcB A2c |\
F2F F2A | E2E E2e |\
fed c2B | A3- A2 :|

%%sep 1 1 500
%%sep 1 1 500

